!!!COM: Music21
!!!OTL: slide_Bunclody--The
!!!OMV: slide_Bunclody--The
**kern
*clefG2
*k[f#c#]
*D:
*M12/8
=1
4dd
8dd
8ddL
8cc#
8bJ
4a
8g
4e
8f#
=
4.g
8eL
8f#
8gJ
4b
8a
4f#
8a
=
4dd
8dd
8ddL
8cc#
8bJ
4a
8g
4e
8f#
=
8gL
8a
8gJ
4f#
8e
4.d
4.d
!!linebreak:original
=||
*M12/8
4dd
8dd
8ddL
8cc#
8bJ
4a
8g
4e
8f#
=
4.g
8eL
8f#
8gJ
4b
8a
4f#
8a
=
4dd
8dd
8ddL
8cc#
8bJ
4a
8g
4e
8f#
=
8gL
8a
8gJ
4f#
8e
4.d
8dL
8e
8gJ
!!linebreak:original
=||
4f#
8a
8aL
8b
8aJ
4e
8b
8bL
8a
8bJ
=
8cc#L
8b
8cc#J
8aL
8b
8cc#J
8ddL
8cc#
8bJ
4a
8g
=
4f#
8a
8aL
8g#X
8aJ
4gn
8b
4b
8ccn
=
8cc#L
8b
8cc#J
8aL
8b
8cc#J
8ddL
8ff#
8eeJ
4dd
8a
!!linebreak:original
=||
4f#
8a
8aL
8b
8aJ
4e
8b
8bL
8a
8bJ
=
8cc#L
8b
8cc#J
8aL
8b
8cc#J
8ddL
8cc#
8bJ
4a
8g
=
4f#
8a
8aL
8g#X
8aJ
4gn
8b
4b
8ccn
=
8cc#L
8b
8cc#J
8aL
8b
8cc#J
8ddL
8ff#
8eeJ
4.dd
=||
*-
